icons/mobile/24/svg/forward-24.svg

<svg width="24" height="24" viewBox="0 0 24 24" fill="none" xmlns="http://www.w3.org/2000/svg">
<path d="M13.6064 5.25732C13.9485 4.91539 14.5018 4.91534 14.8438 5.25732L20.2314 10.644C20.7282 11.1399 21.0009 11.7988 21.001 12.4995C21.001 13.2004 20.7273 13.86 20.2324 14.356L14.8438 19.7436C14.6728 19.9146 14.4486 19.9995 14.2246 19.9995C14.0018 19.9994 13.7773 19.9145 13.6064 19.7436C13.2654 19.4026 13.2654 18.8493 13.6064 18.5073L18.7383 13.3755H3.875C3.39216 13.3755 3.00026 12.9833 3 12.5005C3 12.0175 3.392 11.6255 3.875 11.6255H18.7373L13.6064 6.49365C13.2654 6.15265 13.2654 5.59932 13.6064 5.25732Z" fill="black"/>
</svg>

<!-- This Source Code Form is subject to the terms of the Mozilla Public
   - License, v. 2.0. If a copy of the MPL was not distributed with this
   - file, You can obtain one at http://mozilla.org/MPL/2.0/. -->
<svg xmlns="http://www.w3.org/2000/svg" width="24" height="24" fill="none" viewBox="0 0 24 24">
    <path fill="#000" d="M13.606 5.257a.875.875 0 0 1 1.238 0l5.387 5.387c.497.496.77 1.155.77 1.855 0 .701-.274 1.361-.769 1.857l-5.388 5.388a.87.87 0 0 1-1.238 0 .875.875 0 0 1 0-1.237l5.132-5.132H3.875a.876.876 0 0 1 0-1.75h14.862l-5.13-5.131a.875.875 0 0 1 0-1.237" />
</svg>
